X: 7
T:Rakes o' Marlow, Headington
M:4/4
L:1/8
A:Headington
P:A(A2B2)4
K:GMix
P:A
GB    GB GB B2   |FA    FA FA cB/A/|GB    GB GB dg   |ed/c/ BA G2 G2  ||
P:B
gf/e/ dc Bc d2   |gf/e/ dc BG A2   |gf/e/ dc Bc d/d/c|BG    AF G2 G2  ||
